!!!!SEGMENT: pl-cz--ii-87--002-003_grim-jozef--spiewy-do-dwoch-mszy-credo.krn
!!!cenid: 18xx:1175
!!!COM: Grim, Józef
!!!COM-rismid: pe30003883
!!!CDT: ~1800-~1899
!!!CNT:
!!!OPR: Śpiewy do dwóch mszy
!!!OTL: Credo
!!!OMV: 003
!!!PDT: 1888
!!!AGN: Sacred; Mass
!!!SMS-siglum: PL-CZ
!!!SMS-shelfmark: II-87
!!!SMS-shelfwork: 002-003 M
!!!SMS-variant:
!!!SMS-altvar:
!!!NIFC-rismid: 300033225
!!!URL-scan: http://repozytorium.nifc.pl/skany/pl-cz-nut--ii-87
!!!ONB-nifc: UWAGA: części Mszy: Kirie, Gloria, Credo, Offertorium, Sanctus, Benedictus, Agnus Dei
!!!AIN: 2 organ 1 vox
!!!key: G
**kern	**kern	**dynam	**kern	**text	**dynam
*part3	*part2	*part2	*part1	*part1	*part1
*group1	*group1	*	*group1	*group1	*
*staff3	*staff2	*	*staff1	*staff1	*
*I"	*I"[Organo]	*	*I"[Voce]	*	*
*Iorgan	*Iorgan	*	*Ivox	*	*
*ICklav	*ICklav	*	*ICvox	*	*
*IGacmp	*IGacmp	*	*IGsolo	*	*
*clefF4	*clefG2	*	*clefG2	*	*
*k[f#]	*k[f#]	*	*k[f#]	*	*
*G:	*G:	*	*G:	*	*
*M3/4	*M3/4	*	*M3/4	*	*
=1	=1	=1	=1	=1	=1
*	*^	*	*	*	*
*	*	*^	*	*	*	*
!	!	!	!	!	!LO:TX:t=P:problem:wykreślone 2d 2g/	!	!
!	!LO:N:vis=2	!	!	!	!LO:TX:a:B:t=Andante	!	!
4G 4GG\	[2.g/	2B\	4B\	.	2.r	.	.
4E\	.	.	4e/	.	.	.	.
4C#X\	.	4A#X\	4e/	.	.	.	.
*	*	*v	*v	*	*	*	*
=2	=2	=2	=2	=2	=2	=2
2.D\	2.g/]	4d 4B\	.	2.r	.	.
.	.	4e 4c\	.	.	.	.
.	.	4d 4B\	.	.	.	.
=3	=3	=3	=3	=3	=3	=3
4DD/	2g/	2c 2A\	.	2.r	.	.
2D\	.	.	.	.	.	.
.	4f#/	8d\L	.	.	.	.
.	.	8c\J	.	.	.	.
*	*v	*v	*	*	*	*
=4	=4	=4	=4	=4	=4
4G\	4.b 4.g 4.d 4.B/	.	2.r	.	.
4GG/	.	.	.	.	.
.	8d/L	.	.	.	.
4r	8g/	.	.	.	.
.	8a/J	.	.	.	.
=5||	=5||	=5||	=5||	=5||	=5||
*	*^	*	*	*	*
8GG\L	2.b 2.g/	2.d\	.	4b\	Wie-	.
8G\J	.	.	.	.	.	.
4B\	.	.	.	4b\	-rży-	.
4G\	.	.	.	4b\	-my	.
=6	=6	=6	=6	=6	=6	=6
2.D\	2a/	4g\	.	2a/	w Bo-	.
.	.	8f#\L	.	.	.	.
.	.	8e\J	.	.	.	.
.	4f#/	8d\L	.	4a/	-ga	.
.	.	8c\J	.	.	.	.
=7	=7	=7	=7	=7	=7	=7
4E\	2.b 2.g/	2.B\	.	4g/	co	.
4G\	.	.	.	4g/	swia-	.
4E\	.	.	.	4g/	-ty	.
!!LO:LB:g=original
=8	=8	=8	=8	=8	=8	=8
*	*	*^	*	*	*	*
2.BB/	2f#/	2B\	4e/	.	2f#/	two-	.
.	.	.	8d\L	.	.	.	.
.	.	.	8d#X\J	.	.	.	.
.	4ryy	4ryy	4d#\	.	4f#/	-rży,	.
*	*	*v	*v	*	*	*	*
=9	=9	=9	=9	=9	=9	=9
*^	*	*	*	*	*	*
2G/	4C\	2.e/	2.c\	.	4e/	wie-	.
.	4E\	.	.	.	4e/	-my	.
4ryy	4C\	.	.	.	4e/	że	.
*v	*v	*	*	*	*	*	*
=10	=10	=10	=10	=10	=10	=10
2.GG\	2d/	4c\	.	2d/	Chry-	.
.	.	4B\	.	.	.	.
.	4ryy	4d\	.	4g/	-stus	.
=11	=11	=11	=11	=11	=11	=11
4c 4A\	4f#/	2.d\	.	4f#/	pra-	.
4F#\	4cc 4a/	.	.	4cc\	-wy	.
4G\	4b 4g/	.	.	4b\	Syn	.
=12	=12	=12	=12	=12	=12	=12
2D\	4b 4g/	2d\	.	4b\	Bo-	.
.	4a 4f#/	.	.	4a/	-ży,	.
4r	8d/L	4ryy	.	4r	.	.
.	8f#/J	.	p	.	.	.
*	*v	*v	*	*	*	*
=13	=13	=13	=13	=13	=13
!LO:N:vis=2.	!	!	!	!	!
8D\L	2.a 2.f#/	.	4a/	by	.
8d\	.	.	.	.	.
8d\	.	.	4a/	ze-	.
8d\	.	.	.	.	.
8d\	.	.	4a/	-trzeć	.
8d\J	.	.	.	.	.
=14	=14	=14	=14	=14	=14
*	*^	*	*	*	*
!LO:N:vis=2.	!	!	!	!	!	!
8D\L	8a/L	4f#\	.	8a/L	gło-	.
8d\	8a#X/J	.	.	8a#X/J	.	.
8d\	4b/	4g\	.	4b\	-wę	.
8d\	.	.	.	.	.	.
8d\	4r	4ryy	.	4r	.	.
8d\J	.	.	.	.	.	.
*	*v	*v	*	*	*	*
!!LO:PB:g=original
=15	=15	=15	=15	=15	=15
!LO:N:vis=2.	!	!	!	!	!
8D\L	2.b 2.g/	.	4b\	pie-	.
8d\	.	.	.	.	.
8d\	.	.	4b\	-kiel-	.
8d\	.	.	.	.	.
8d\	.	.	4b\	-nej	.
8d\J	.	.	.	.	.
=16	=16	=16	=16	=16	=16
*^	*^	*	*	*	*
4.D/	8D\L	8b/L	4g#X\	.	4b\	zmi-	.
.	8d\J	8dd/J	.	.	.	.	.
.	8d\	4cc/	8a\L	.	4cc\	-i	.
8r	8ryy	.	8d\	.	.	.	.
!LO:TX:t=P:problem:8r poprawiona na 4r	!	!	!	!	!	!	!
4r	4ryy	4r	8f#\	.	4r	.	.
.	.	.	8a\J	.	.	.	.
=17	=17	=17	=17	=17	=17	=17	=17
!	!LO:N:vis=2	!	!	!	!	!	!LO:DY:a
2C/	(>8C\L	2ee/	2a 2f#\	.	4ee\	przy-	f
.	8c\)	.	.	.	.	.	.
.	8c\	.	.	.	4ee\	-szedł	.
.	8c\J	.	.	.	.	.	.
4ryy	(8C\L	4ee/	4f#\	.	4ee\	na	.
.	8c\J)	.	.	.	.	.	.
*v	*v	*	*	*	*	*	*
=18	=18	=18	=18	=18	=18	=18
4B\	4dd/	8g\L	.	(4dd\	zie-	.
.	.	8d\	.	.	.	.
4A\	4cc/	8e\	.	4cc\)	.	.
.	.	8f#\J	.	.	.	.
4G\	4b/	8g\L	.	4b\	-mię	.
.	.	8f#\J	.	.	.	.
=19	=19	=19	=19	=19	=19	=19
*	*	*^	*	*	*	*
(4C/	8ddL 8b/	4e\	2ryy	.	8dd\L	z ło-	.
.	8ccJ 8a/	.	.	.	8cc\J	.	.
!LO:TX:t=P:problem:4DD poprawione na 4D	!	!	!	!	!	!	!
4D/)	4b/	8g\L	.	.	4b\	-na	.
.	.	8d\J	.	.	.	.	.
4D 4DD/	8a/L	8c\L	4f#/	.	8a\L	Ma-	.
.	8b/J	8d\J	.	.	8b\J	.	.
*	*	*v	*v	*	*	*	*
=20	=20	=20	=20	=20	=20	=20
*^	*	*	*	*	*	*
!	!LO:N:vis=2	!	!	!	!	!	!
2GG/	8GG\L	4a/	4f# 4c\	.	4a/	-ry-	.
.	8D\J	.	.	.	.	.	.
.	2BB/	2g/	2B\	.	4g/	-i .	.
4ryy	.	.	.	.	4r	.	.
*v	*v	*	*	*	*	*	*
*	*v	*v	*	*	*	*
==	==	==	==	==	==
*-	*-	*-	*-	*-	*-
!!!system-decoration: [g1]
!!!ENC: Katarzyna Serwa
!!!END: 2021-11-14
!!!ENC: Andrzej Borzym
!!!END: 2020-11-07
!!!RDF**kern: > = above
!!!RDF**kern: < = below
